apps/www/public/images/logos/publicity/v0.svg

<svg width="101" height="60" viewBox="0 0 101 60" fill="none" xmlns="http://www.w3.org/2000/svg">
<g clip-path="url(#clip0_2801_842)">
<path d="M57.0147 10H76.0685C83.7947 10 90.0581 16.2633 90.0581 23.9895V42.161H82.2321V23.9895C82.2321 23.8033 82.2247 23.6185 82.2105 23.4353L63.1565 42.158C63.2207 42.16 63.2853 42.161 63.3499 42.161H82.2321V49.5524H63.3499C55.6237 49.5524 49.1885 43.2278 49.1885 35.5016V17.3785H57.0147V35.5016C57.0147 35.8506 57.0417 36.1954 57.0941 36.5336L76.5673 17.399C76.4031 17.3854 76.2369 17.3785 76.0685 17.3785H57.0147V10Z" fill="#7E7E7E"/>
<path d="M37.7651 48.1913L10.2275 17.3752H21.3062L37.4737 35.4675V17.3752H45.7345V45.1493C45.7345 49.3411 40.5583 51.3169 37.7651 48.1913Z" fill="#7E7E7E"/>
</g>
<defs>
<clipPath id="clip0_2801_842">
<rect width="80" height="40" fill="white" transform="translate(10.2275 10)"/>
</clipPath>
</defs>
</svg>

<svg xmlns="http://www.w3.org/2000/svg" width="101" height="60" fill="none" viewBox="0 0 101 60"><g fill="#7e7e7e" clip-path="url(#a)"><path d="M57.015 10h19.054c7.726 0 13.99 6.263 13.99 13.99V42.16h-7.827V23.99a7 7 0 0 0-.022-.555L63.158 42.158q.096.003.193.003h18.882v7.391H63.35c-7.726 0-14.162-6.324-14.162-14.05V17.378h7.827v18.124q0 .523.08 1.032l19.472-19.135a6 6 0 0 0-.498-.02H57.015zM37.765 48.191 10.228 17.375h11.078l16.168 18.093V17.375h8.26V45.15c0 4.192-5.176 6.168-7.969 3.042"/></g><defs><clipPath id="a"><path fill="#fff" d="M10.228 10h80v40h-80z"/></clipPath></defs></svg>
